X:1
T:Charles, 87.87
T:Charles, 87.87
T:Frank Sewall  (1837-1915)
T:Public Domain Courtesy of the Cyber Hymnal™
C:Frank Sewall  (1837-1915)
Z:Public Domain
Z:Courtesy of the Cyber Hymnal™
%%score ( 1 2 ) ( 3 4 )
L:1/8
Q:1/4=110
M:4/4
K:D
V:1 treble 
V:2 treble 
V:3 bass 
V:4 bass 
V:1
 D2 [CE]2 [DF]2 [DA]2 | [DG]2 [DF]2 [A,E]2 [A,D]2 | [DF]2 G2 [A,A]2 [Fd]2 | [Ac]2 [GB]2 [FA]4 | %4
 [Fd]2 [Fd]2 [Fc]2 F2 | [DB]2 [CB]2 [DA]2 [=CA]2 | [B,G]2 [^DF]2 E2 [=DB]2 | [DF]2 [CE]2 D4 |] %8
V:2
 D2 x6 | x8 | x2 (CB,) x4 | x8 | x6 F2 | x8 | x4 E2 x2 | x4 D4 |] %8
V:3
 [D,F,]2 [A,,A,]2 [D,A,]2 [F,,A,]2 | [G,,B,]2 [A,,A,]2 G,2 [D,F,]2 | %2
 [D,A,]2 [E,A,]2 [F,D]2 [D,D]2 | D2 D2 D4 | [B,D]2 B,2 [F,B,]2 [F,A,]2 | G,2 [E,G,]2 [^D,F,]2 x2 | %6
 [E,G,]2 [F,A,]2 [G,B,]2 [^G,B,]2 | A,2- A, [D,F,]4 x |] %8
V:4
 x8 | x4 (B,,C,) x2 | x8 | (G,A,) (B,C) D4 | x2 B,2 x4 | G,2 F,2 x4 | x8 | x2 A,,2 G, x3 |] %8

